icons/glyphs/glyph-music-note-round.svg

<?xml version="1.0" encoding="UTF-8" standalone="no"?><svg height="22" viewBox="0 0 5.8208332 5.8208335" width="22" xmlns="http://www.w3.org/2000/svg"><sodipodi:namedview/><metadata><rdf:RDF><cc:Work><dc:format>image/svg+xml</dc:format><dc:type/><dc:title/></cc:Work></rdf:RDF></metadata><path d="m11 0a11 11 0 0 0 -11 11 11 11 0 0 0 11 11 11 11 0 0 0 11-11 11 11 0 0 0 -11-11zm-.599609 3.2265625h5.328125v3.8066406h-3.425782v8.6015629c0 1.941127-1.712218 3.539062-3.6914059 3.539062-1.9411272 0-3.5390625-1.559874-3.5390625-3.539062 0-1.941128 1.559874-3.541016 3.5390625-3.541016.6470423 0 1.2562039.191603 1.7890629.496094z" fill="#fff" stroke-linecap="round" stroke-linejoin="round" stroke-width="2.3" transform="scale(.26458333)"/></svg>

<?xml version="1.0" encoding="UTF-8" standalone="no"?>
<!-- Created with Inkscape (http://www.inkscape.org/) -->

<svg
   xmlns:dc="http://purl.org/dc/elements/1.1/"
   xmlns:cc="http://creativecommons.org/ns#"
   xmlns:rdf="http://www.w3.org/1999/02/22-rdf-syntax-ns#"
   xmlns:svg="http://www.w3.org/2000/svg"
   xmlns="http://www.w3.org/2000/svg"
   xmlns:sodipodi="http://sodipodi.sourceforge.net/DTD/sodipodi-0.dtd"
   xmlns:inkscape="http://www.inkscape.org/namespaces/inkscape"
   width="22"
   height="22"
   viewBox="0 0 5.8208332 5.8208335"
   version="1.1"
   id="svg8"
   inkscape:version="0.92+devel 15698 custom"
   sodipodi:docname="glyph-music-note-round.svg">
  <defs
     id="defs2" />
  <sodipodi:namedview
     id="base"
     pagecolor="#002466"
     bordercolor="#ffffff"
     borderopacity="0.29019608"
     inkscape:pageopacity="1"
     inkscape:pageshadow="2"
     inkscape:zoom="13.21004"
     inkscape:cx="11"
     inkscape:cy="11"
     inkscape:document-units="px"
     inkscape:current-layer="svg8"
     inkscape:document-rotation="0"
     showgrid="false"
     units="px"
     inkscape:showpageshadow="false"
     borderlayer="true"
     inkscape:window-width="1920"
     inkscape:window-height="1054"
     inkscape:window-x="0"
     inkscape:window-y="0"
     inkscape:window-maximized="1" />
  <metadata
     id="metadata5">
    <rdf:RDF>
      <cc:Work
         rdf:about="">
        <dc:format>image/svg+xml</dc:format>
        <dc:type
           rdf:resource="http://purl.org/dc/dcmitype/StillImage" />
        <dc:title></dc:title>
      </cc:Work>
    </rdf:RDF>
  </metadata>
  <path
     style="fill:#ffffff;stroke-width:2.29999995;stroke-linecap:round;stroke-linejoin:round"
     d="M 11 0 A 11 11 0 0 0 0 11 A 11 11 0 0 0 11 22 A 11 11 0 0 0 22 11 A 11 11 0 0 0 11 0 z M 10.400391 3.2265625 L 15.728516 3.2265625 L 15.728516 7.0332031 L 12.302734 7.0332031 L 12.302734 15.634766 C 12.302734 17.575893 10.590516 19.173828 8.6113281 19.173828 C 6.6702009 19.173828 5.0722656 17.613954 5.0722656 15.634766 C 5.0722656 13.693638 6.6321396 12.09375 8.6113281 12.09375 C 9.2583704 12.09375 9.867532 12.285353 10.400391 12.589844 L 10.400391 3.2265625 z "
     transform="scale(0.26458333)"
     id="path4857"
     inkscape:label="#glyph" />
</svg>
